X:53
%%etbk:tnset id:241,pos:2,rep:3x,ant:
%%etbk:wsite http://www.thesession.org/tunes/display/2212
%%etbk:pldat 2015-01-20T17:48,2015-01-18T11:16,2014-12-11T18:28,2014-12-09T17:13,2014-12-04T19:08,2014-05-11T12:02,2014-05-09T18:28,2014-05-02T16:59,2014-04-30T16:18,2014-04-12T15:45,2014-04-07T19:10,2014-03-30T17:41,2014-03-21T16:20,2014-03-18T17:05,2014-03-15T17:07,2014-03-09T16:35,2014-03-02T16:50,2014-03-01T17:01,2014-02-14T17:02,2014-02-13T18:20,2013-12-11T19:35,2013-11-24T15:18,2013-11-23T16:08,2013-11-18T18:42,2013-11-16T15:59,2013-11-13T17:01,2013-11-10T15:02,2013-11-09T14:45,2013-11-07T17:31,2013-05-21T15:22
T: John Naughton's
Z: Piano Box Version by Martin Fleischmann
H: Created 2013-02-19 /  Last Modified 2013-02-19
M: 4/4
L: 1/8
R: reel
K: Ador
|: !1!E!2!A!2!A!2!A !3!B!4!d!5!e!4!d | !3!B!1!G!2!G!1!G !4!B!2!G!3!A!2!G | !1!E2!2!AA !3!B!4!d!2!ef | !4!ge!1!d!2!B B!1!AA!2!G |
!1!E2!2!AA !3!Bded | !3!B!1!GGG !4!B!2!GA!2!G | !1!E!2!AAA !3!B!4!d!2!ef | !4!ge!1!d!2!B B!1!AA2:|
|:!5!a3 a age!1!d | !2!B!1!def !4!g2fg | !5!a3 a agef | !4!ge!1!d!2!B B!1!A A2 |
!5!a3 a age!1!d | !2!Bdef !4!g3 !4!a | !5!b2 !4!aa ag!2!ef | !4!ge!1!d!2!B B!1!A A2:|


